dist/img/list.svg

<svg width="13" height="16" viewBox="0 0 13 16" fill="none" xmlns="http://www.w3.org/2000/svg">
<path d="M1.09991 16C0.951842 16 0.803777 15.9788 0.676865 15.9154C0.274977 15.725 0 15.3231 0 14.8366V1.12106C0 0.507649 0.486497 0 1.09991 0H11.3798C11.9721 0 12.4797 0.507649 12.4797 1.12106V14.8155C12.522 15.2385 12.3105 15.6404 11.9509 15.8519C11.5702 16.0635 11.0837 16.0212 10.7241 15.7462L10.6818 15.7039L6.261 11.685L1.84023 15.7039C1.62871 15.8942 1.37488 16 1.09991 16ZM1.16336 1.14221V14.7309L5.54183 10.7543C5.96487 10.4159 6.55713 10.4159 6.98017 10.7543L7.00132 10.7754L11.3163 14.6886V1.14221H1.16336Z" fill="#4F4F4F"/>
</svg>

<svg fill="none" xmlns="http://www.w3.org/2000/svg" viewBox="0 0 13 16"><path d="M1.1 16a.948.948 0 01-.423-.085A1.179 1.179 0 010 14.837V1.12A1.11 1.11 0 011.1 0h10.28c.592 0 1.1.508 1.1 1.121v13.694a1.08 1.08 0 01-.53 1.037 1.13 1.13 0 01-1.226-.106l-.042-.042-4.421-4.019-4.42 4.019A1.1 1.1 0 011.1 16zm.063-14.858v13.589l4.379-3.977a1.146 1.146 0 011.438 0l.021.021 4.315 3.914V1.142H1.163z" fill="#4F4F4F"/></svg>
